public/logos/TP.svg

<?xml version="1.0" encoding="UTF-8"?>
<svg xmlns="http://www.w3.org/2000/svg" xmlns:xlink="http://www.w3.org/1999/xlink" width="176pt" height="28.19pt" viewBox="0 0 176 28.19" version="1.1">
<defs>
<clipPath id="clip1">
  <path d="M 6 0 L 35 0 L 35 28.191406 L 6 28.191406 Z M 6 0 "/>
</clipPath>
<clipPath id="clip2">
  <path d="M 0 0 L 21 0 L 21 28.191406 L 0 28.191406 Z M 0 0 "/>
</clipPath>
<clipPath id="clip3">
  <path d="M 6 0 L 21 0 L 21 28.191406 L 6 28.191406 Z M 6 0 "/>
</clipPath>
<clipPath id="clip4">
  <path d="M 26 0 L 51 0 L 51 28.191406 L 26 28.191406 Z M 26 0 "/>
</clipPath>
<clipPath id="clip5">
  <path d="M 26 0 L 35 0 L 35 28.191406 L 26 28.191406 Z M 26 0 "/>
</clipPath>
</defs>
<g id="surface1">
<path style=" stroke:none;fill-rule:evenodd;fill:rgb(12.866211%,11.170959%,11.180115%);fill-opacity:1;" d="M 60.132812 20.113281 L 62.441406 20.113281 L 62.441406 9.949219 L 66.332031 9.949219 L 66.332031 8.074219 L 56.3125 8.074219 L 56.3125 9.949219 L 60.132812 9.949219 L 60.132812 20.113281 "/>
<path style=" stroke:none;fill-rule:evenodd;fill:rgb(12.866211%,11.170959%,11.180115%);fill-opacity:1;" d="M 69 14.921875 L 70.082031 11.820312 C 70.300781 11.175781 70.441406 10.453125 70.660156 9.730469 C 70.875 10.378906 71.09375 11.175781 71.378906 11.894531 L 72.460938 14.921875 Z M 72.894531 16.652344 L 74.121094 20.113281 L 76.644531 20.113281 L 72.246094 8.074219 L 69.289062 8.074219 L 65.035156 20.113281 L 67.414062 20.113281 L 68.570312 16.652344 L 72.894531 16.652344 "/>
<path style=" stroke:none;fill-rule:evenodd;fill:rgb(12.866211%,11.170959%,11.180115%);fill-opacity:1;" d="M 80.175781 9.804688 C 80.394531 9.730469 80.898438 9.730469 81.617188 9.730469 C 83.277344 9.730469 84.359375 10.308594 84.359375 11.75 C 84.359375 13.121094 83.207031 13.984375 81.472656 13.984375 C 80.898438 13.984375 80.464844 13.914062 80.175781 13.839844 Z M 77.871094 20.113281 L 80.175781 20.113281 L 80.175781 15.644531 C 80.535156 15.714844 80.96875 15.714844 81.402344 15.714844 C 83.207031 15.714844 84.574219 15.285156 85.511719 14.417969 C 86.234375 13.769531 86.59375 12.761719 86.59375 11.679688 C 86.59375 10.527344 86.089844 9.585938 85.367188 9.011719 C 84.574219 8.363281 83.351562 7.929688 81.617188 7.929688 C 79.960938 7.929688 78.734375 8.074219 77.871094 8.21875 L 77.871094 20.113281 "/>
<path style=" stroke:none;fill-rule:evenodd;fill:rgb(12.866211%,11.170959%,11.180115%);fill-opacity:1;" d="M 92.074219 9.371094 C 92.433594 9.300781 93.011719 9.226562 93.804688 9.226562 C 95.535156 9.226562 96.90625 9.875 96.90625 11.605469 C 96.90625 13.265625 95.679688 14.203125 93.660156 14.203125 C 93.011719 14.203125 92.507812 14.128906 92.074219 13.984375 Z M 90.488281 20.113281 L 92.074219 20.113281 L 92.074219 15.355469 C 92.507812 15.429688 93.011719 15.429688 93.589844 15.429688 C 95.246094 15.429688 96.617188 14.996094 97.554688 14.128906 C 98.203125 13.554688 98.5625 12.617188 98.5625 11.535156 C 98.5625 10.453125 98.132812 9.585938 97.40625 9.011719 C 96.6875 8.363281 95.464844 7.929688 93.804688 7.929688 C 92.363281 7.929688 91.28125 8.074219 90.488281 8.21875 L 90.488281 20.113281 "/>
<path style=" stroke:none;fill-rule:evenodd;fill:rgb(12.866211%,11.170959%,11.180115%);fill-opacity:1;" d="M 105.847656 19.03125 C 103.03125 19.03125 101.375 16.796875 101.375 14.203125 C 101.375 11.460938 102.890625 9.15625 105.847656 9.15625 C 108.800781 9.15625 110.316406 11.605469 110.316406 14.058594 C 110.316406 16.871094 108.585938 19.03125 105.847656 19.03125 Z M 105.773438 20.332031 C 109.234375 20.332031 112.046875 17.949219 112.046875 13.984375 C 112.046875 10.453125 109.59375 7.859375 105.917969 7.859375 C 102.3125 7.859375 99.644531 10.453125 99.644531 14.203125 C 99.644531 17.734375 102.167969 20.332031 105.773438 20.332031 "/>
<path style=" stroke:none;fill-rule:evenodd;fill:rgb(12.866211%,11.170959%,11.180115%);fill-opacity:1;" d="M 114.929688 9.371094 C 115.21875 9.300781 115.796875 9.226562 116.730469 9.226562 C 118.390625 9.226562 119.761719 9.804688 119.761719 11.460938 C 119.761719 12.832031 118.605469 13.699219 116.804688 13.699219 L 114.929688 13.699219 Z M 113.269531 20.113281 L 114.929688 20.113281 L 114.929688 14.921875 L 116.730469 14.921875 C 118.175781 14.996094 118.894531 15.644531 119.257812 17.300781 C 119.617188 18.816406 119.90625 19.753906 120.121094 20.113281 L 121.78125 20.113281 C 121.5625 19.609375 121.203125 18.457031 120.769531 16.726562 C 120.480469 15.570312 119.90625 14.707031 118.96875 14.347656 C 120.265625 13.914062 121.347656 12.832031 121.347656 11.246094 C 121.347656 10.308594 120.988281 9.515625 120.410156 9.011719 C 119.617188 8.289062 118.464844 7.929688 116.660156 7.929688 C 115.433594 7.929688 114.136719 8.074219 113.269531 8.21875 L 113.269531 20.113281 "/>
<path style=" stroke:none;fill-rule:evenodd;fill:rgb(12.866211%,11.170959%,11.180115%);fill-opacity:1;" d="M 126.320312 20.113281 L 127.980469 20.113281 L 127.980469 9.445312 L 132.160156 9.445312 L 132.160156 8.074219 L 122.140625 8.074219 L 122.140625 9.445312 L 126.320312 9.445312 L 126.320312 20.113281 "/>
<path style=" stroke:none;fill-rule:evenodd;fill:rgb(12.866211%,11.170959%,11.180115%);fill-opacity:1;" d="M 133.101562 8.074219 L 133.101562 14.851562 C 133.101562 18.890625 135.191406 20.332031 137.859375 20.332031 C 140.742188 20.332031 142.90625 18.742188 142.90625 14.851562 L 142.90625 8.074219 L 141.320312 8.074219 L 141.320312 14.921875 C 141.320312 17.734375 139.949219 19.03125 137.929688 19.03125 C 136.054688 19.03125 134.757812 17.734375 134.757812 14.921875 L 134.757812 8.074219 L 133.101562 8.074219 "/>
<path style=" stroke:none;fill-rule:evenodd;fill:rgb(12.866211%,11.170959%,11.180115%);fill-opacity:1;" d="M 155.523438 13.769531 L 151.195312 13.769531 L 151.195312 15.066406 L 153.9375 15.066406 L 153.9375 18.527344 C 153.503906 18.742188 152.640625 18.960938 151.484375 18.960938 C 148.167969 18.960938 146.222656 16.941406 146.222656 14.058594 C 146.222656 11.316406 148.242188 9.300781 151.628906 9.300781 C 153.070312 9.300781 153.9375 9.515625 154.730469 9.875 L 155.164062 8.578125 C 154.585938 8.289062 153.289062 7.929688 151.703125 7.929688 C 147.015625 7.929688 144.492188 10.886719 144.492188 14.128906 C 144.492188 15.933594 145.140625 17.519531 146.222656 18.527344 C 147.519531 19.753906 149.25 20.257812 151.339844 20.257812 C 153.214844 20.257812 154.800781 19.753906 155.523438 19.539062 L 155.523438 13.769531 "/>
<path style=" stroke:none;fill-rule:evenodd;fill:rgb(12.866211%,11.170959%,11.180115%);fill-opacity:1;" d="M 159.992188 14.996094 L 161.4375 11.390625 C 161.652344 10.667969 161.867188 10.019531 162.011719 9.371094 L 162.085938 9.371094 C 162.230469 10.019531 162.445312 10.667969 162.734375 11.390625 L 164.105469 14.996094 Z M 164.464844 16.292969 L 165.90625 20.113281 L 167.707031 20.113281 L 163.09375 8.074219 L 161.148438 8.074219 L 156.53125 20.113281 L 158.261719 20.113281 L 159.632812 16.292969 L 164.464844 16.292969 "/>
<path style=" stroke:none;fill-rule:evenodd;fill:rgb(12.866211%,11.170959%,11.180115%);fill-opacity:1;" d="M 168.644531 20.113281 L 176 20.113281 L 176 18.742188 L 170.304688 18.742188 L 170.304688 8.074219 L 168.644531 8.074219 L 168.644531 20.113281 "/>
<path style=" stroke:none;fill-rule:evenodd;fill:rgb(62.866211%,84.375%,22.737122%);fill-opacity:1;" d="M 12.542969 15.066406 L 24.585938 15.066406 L 24.585938 23.144531 L 12.542969 23.144531 L 12.542969 15.066406 "/>
<g clip-path="url(#clip1)" clip-rule="nonzero">
<path style=" stroke:none;fill-rule:evenodd;fill:rgb(62.866211%,84.375%,22.737122%);fill-opacity:1;" d="M 6.054688 28.191406 L 14.058594 -0.00390625 L 26.171875 -0.00390625 L 34.175781 28.191406 L 26.171875 28.191406 L 20.117188 8.074219 L 14.058594 28.191406 L 6.054688 28.191406 "/>
</g>
<g clip-path="url(#clip2)" clip-rule="nonzero">
<path style=" stroke:none;fill-rule:evenodd;fill:rgb(62.866211%,84.375%,22.737122%);fill-opacity:1;" d="M 6.054688 28.191406 L 6.054688 8.074219 L 0 8.074219 L 0 -0.00390625 L 20.117188 -0.00390625 L 20.117188 8.074219 L 14.058594 8.074219 L 14.058594 28.191406 L 6.054688 28.191406 "/>
</g>
<g clip-path="url(#clip3)" clip-rule="nonzero">
<path style=" stroke:none;fill-rule:evenodd;fill:rgb(47.50824%,77.763367%,30.450439%);fill-opacity:1;" d="M 6.054688 28.191406 L 14.058594 28.191406 L 14.058594 8.074219 L 20.117188 8.074219 L 20.117188 -0.00390625 L 14.058594 -0.00390625 L 6.054688 28.191406 "/>
</g>
<g clip-path="url(#clip4)" clip-rule="nonzero">
<path style=" stroke:none;fill-rule:evenodd;fill:rgb(88.981628%,9.127808%,25.375366%);fill-opacity:1;" d="M 26.171875 -0.00390625 L 40.230469 -0.00390625 C 45.785156 -0.00390625 50.253906 4.539062 50.253906 10.09375 C 50.253906 15.644531 45.714844 20.113281 40.230469 20.113281 L 34.175781 20.113281 L 34.175781 28.191406 L 26.171875 28.191406 L 26.171875 -0.00390625 "/>
</g>
<path style=" stroke:none;fill-rule:evenodd;fill:rgb(100%,100%,100%);fill-opacity:1;" d="M 34.175781 8.074219 L 40.230469 8.074219 C 41.3125 8.074219 42.179688 8.9375 42.179688 10.09375 C 42.179688 11.175781 41.3125 12.113281 40.230469 12.113281 L 34.175781 12.113281 L 34.175781 8.074219 "/>
<g clip-path="url(#clip5)" clip-rule="nonzero">
<path style=" stroke:none;fill-rule:evenodd;fill:rgb(73.606873%,18.887329%,29.473877%);fill-opacity:1;" d="M 26.171875 28.191406 L 34.175781 28.191406 L 26.171875 -0.00390625 Z M 26.171875 28.191406 "/>
</g>
</g>
</svg>

<svg xmlns="http://www.w3.org/2000/svg" width="176pt" height="37.587" viewBox="0 0 176 28.19"><defs><clipPath id="a"><path d="M6 0h29v28.191H6Zm0 0"/></clipPath><clipPath id="b"><path d="M0 0h21v28.191H0Zm0 0"/></clipPath><clipPath id="c"><path d="M6 0h15v28.191H6Zm0 0"/></clipPath><clipPath id="d"><path d="M26 0h25v28.191H26Zm0 0"/></clipPath><clipPath id="e"><path d="M26 0h9v28.191h-9Zm0 0"/></clipPath></defs><path d="M60.133 20.113h2.308V9.95h3.891V8.074h-10.02V9.95h3.82zM69 14.922l1.082-3.102c.219-.644.36-1.367.578-2.09.215.649.434 1.446.719 2.165l1.082 3.027Zm3.895 1.73 1.226 3.461h2.524L72.246 8.074H69.29l-4.254 12.04h2.38l1.155-3.462zM80.176 9.805c.219-.075.722-.075 1.441-.075 1.66 0 2.742.579 2.742 2.02 0 1.371-1.152 2.234-2.886 2.234-.575 0-1.008-.07-1.297-.144ZM77.87 20.113h2.305v-4.468c.36.07.793.07 1.226.07 1.805 0 3.172-.43 4.11-1.297.722-.648 1.082-1.656 1.082-2.738 0-1.153-.504-2.094-1.227-2.668-.793-.649-2.015-1.082-3.75-1.082-1.656 0-2.883.144-3.746.289zM92.074 9.371c.36-.07.938-.144 1.73-.144 1.731 0 3.102.648 3.102 2.378 0 1.66-1.226 2.598-3.246 2.598-.648 0-1.152-.074-1.586-.219Zm-1.586 10.742h1.586v-4.758c.434.075.938.075 1.516.075 1.656 0 3.027-.434 3.965-1.301.648-.574 1.007-1.512 1.007-2.594s-.43-1.95-1.156-2.523c-.719-.649-1.941-1.082-3.601-1.082-1.442 0-2.524.144-3.317.289zM105.848 19.031c-2.817 0-4.473-2.234-4.473-4.828 0-2.742 1.516-5.047 4.473-5.047 2.953 0 4.468 2.45 4.468 4.903 0 2.812-1.73 4.972-4.468 4.972m-.075 1.301c3.461 0 6.274-2.383 6.274-6.348 0-3.53-2.453-6.125-6.129-6.125-3.606 0-6.273 2.594-6.273 6.344 0 3.531 2.523 6.129 6.128 6.129M114.93 9.371c.289-.07.867-.144 1.8-.144 1.66 0 3.032.578 3.032 2.234 0 1.371-1.157 2.238-2.957 2.238h-1.875Zm-1.66 10.742h1.66v-5.191h1.8c1.446.074 2.165.723 2.528 2.379q.54 2.273.863 2.812h1.66c-.219-.504-.578-1.656-1.011-3.386-.29-1.157-.864-2.02-1.801-2.38 1.297-.433 2.379-1.515 2.379-3.1 0-.938-.36-1.731-.938-2.235-.793-.723-1.945-1.082-3.75-1.082a22 22 0 0 0-3.39.289zM126.32 20.113h1.66V9.445h4.18v-1.37h-10.02v1.37h4.18zM133.102 8.074v6.778c0 4.039 2.09 5.48 4.757 5.48 2.883 0 5.047-1.59 5.047-5.48V8.074h-1.586v6.848c0 2.812-1.37 4.11-3.39 4.11-1.875 0-3.172-1.298-3.172-4.11V8.074zM155.523 13.77h-4.328v1.296h2.743v3.461c-.434.215-1.297.434-2.454.434-3.316 0-5.261-2.02-5.261-4.902 0-2.743 2.02-4.758 5.406-4.758 1.441 0 2.309.215 3.101.574l.434-1.297c-.578-.289-1.875-.648-3.46-.648-4.688 0-7.212 2.957-7.212 6.199 0 1.805.649 3.39 1.73 4.398 1.298 1.227 3.028 1.73 5.118 1.73 1.875 0 3.46-.503 4.183-.718zM159.992 14.996l1.446-3.605c.214-.723.43-1.371.574-2.02h.074c.144.649.36 1.297.648 2.02l1.371 3.605Zm4.473 1.297 1.441 3.82h1.801l-4.613-12.039h-1.946l-4.617 12.04h1.73l1.372-3.821zM168.645 20.113H176v-1.37h-5.695V8.073h-1.66z" style="stroke:none;fill-rule:evenodd;fill:#211c1d;fill-opacity:1"/><path d="M12.543 15.066h12.043v8.079H12.543z" style="stroke:none;fill-rule:evenodd;fill:#a0d73a;fill-opacity:1"/><g clip-path="url(#a)"><path d="M6.055 28.191 14.059-.004h12.113l8.004 28.195h-8.004L20.117 8.074 14.06 28.191z" style="stroke:none;fill-rule:evenodd;fill:#a0d73a;fill-opacity:1"/></g><g clip-path="url(#b)"><path d="M6.055 28.191V8.074H0V-.004h20.117v8.078H14.06v20.117z" style="stroke:none;fill-rule:evenodd;fill:#a0d73a;fill-opacity:1"/></g><g clip-path="url(#c)"><path d="M6.055 28.191h8.004V8.074h6.058V-.004H14.06z" style="stroke:none;fill-rule:evenodd;fill:#79c64e;fill-opacity:1"/></g><g clip-path="url(#d)"><path d="M26.172-.004H40.23c5.555 0 10.024 4.543 10.024 10.098 0 5.55-4.54 10.02-10.024 10.02h-6.054v8.077h-8.004z" style="stroke:none;fill-rule:evenodd;fill:#e31741;fill-opacity:1"/></g><path d="M34.176 8.074h6.054c1.083 0 1.95.864 1.95 2.02 0 1.082-.867 2.02-1.95 2.02h-6.054z" style="stroke:none;fill-rule:evenodd;fill:#fff;fill-opacity:1"/><g clip-path="url(#e)"><path d="M26.172 28.191h8.004L26.172-.004Zm0 0" style="stroke:none;fill-rule:evenodd;fill:#bc304b;fill-opacity:1"/></g></svg>
